X:2810
T:Miss Shaftesbury's Fancy
P:Lady Mary Murray
C:Nath. Gow
R:Strathspey (8x32)
B:RSCDS 28-10
Z:Anselm Lingnau <anselm@strathspey.org>
M:C
L:1/8
K:G
%%scale 0.84
E|"G"D>E G>B d/c/B/A/ BG|"Am"A>B c>B "D"A>G F>E|\
  "G"D>E G>B d/c/B/A/ BG|"C"A<B "D7"[gG]>B "G"G/G/G GE|
  "G"D>E G>B d/c/B/A/ BG|"Am"A>B c>B "D"A>G F>E|\
  "G"D>E G>B d/c/B/A/ BG|"C"A<B "D7"[gG]>B "G"G/G/G G||
g|"G"d>e g>a b/a/g/f/ g>e|d<Bg>B "D"Ad FD|\
  "G"d>e g>a b/a/g/f/ "C"g>e|"G"d>B g>B G/G/G G>e|
  "G"d>e g>b "D"a<b"Em"g>a|"C"e<g "G"B>g "D7"A>G F>E|\
  "G"D>E G>B d/c/B/A/ BG|"C"A<B "D7"[gG]>B "G"G/G/G G|]

